dist/78e4eefdd8fda211f06fa774b0a860ee.svg

<svg width="187" height="44" viewBox="0 0 187 44" fill="none" xmlns="http://www.w3.org/2000/svg">
<path d="M15.0384 30.25L11.8464 24.154H11.8224V30.25H6.49443V13.258H14.4144C15.7904 13.258 16.9664 13.506 17.9424 14.002C18.9184 14.482 19.6464 15.146 20.1264 15.994C20.6224 16.826 20.8704 17.77 20.8704 18.826C20.8704 19.962 20.5504 20.97 19.9104 21.85C19.2864 22.73 18.3824 23.362 17.1984 23.746L20.8944 30.25H15.0384ZM11.8224 20.602H13.9344C14.4464 20.602 14.8304 20.49 15.0864 20.266C15.3424 20.026 15.4704 19.658 15.4704 19.162C15.4704 18.714 15.3344 18.362 15.0624 18.106C14.8064 17.85 14.4304 17.722 13.9344 17.722H11.8224V20.602ZM25.2606 15.634C24.3326 15.634 23.5886 15.386 23.0286 14.89C22.4686 14.394 22.1886 13.77 22.1886 13.018C22.1886 12.25 22.4686 11.618 23.0286 11.122C23.5886 10.61 24.3326 10.354 25.2606 10.354C26.1726 10.354 26.9086 10.61 27.4686 11.122C28.0286 11.618 28.3086 12.25 28.3086 13.018C28.3086 13.77 28.0286 14.394 27.4686 14.89C26.9086 15.386 26.1726 15.634 25.2606 15.634ZM27.9006 16.714V30.25H22.5726V16.714H27.9006ZM36.3309 30.418C35.0509 30.418 33.9149 30.21 32.9229 29.794C31.9469 29.378 31.1709 28.802 30.5949 28.066C30.0189 27.33 29.6909 26.498 29.6109 25.57H34.7229C34.7869 25.97 34.9549 26.266 35.2269 26.458C35.5149 26.65 35.8749 26.746 36.3069 26.746C36.5789 26.746 36.7949 26.69 36.9549 26.578C37.1149 26.45 37.1949 26.298 37.1949 26.122C37.1949 25.818 37.0269 25.602 36.6909 25.474C36.3549 25.346 35.7869 25.202 34.9869 25.042C34.0109 24.85 33.2029 24.642 32.5629 24.418C31.9389 24.194 31.3869 23.81 30.9069 23.266C30.4429 22.722 30.2109 21.97 30.2109 21.01C30.2109 20.178 30.4269 19.426 30.8589 18.754C31.3069 18.066 31.9629 17.53 32.8269 17.146C33.6909 16.746 34.7389 16.546 35.9709 16.546C37.7949 16.546 39.2189 16.994 40.2429 17.89C41.2829 18.786 41.9069 19.954 42.1149 21.394H37.3869C37.3069 21.026 37.1389 20.746 36.8829 20.554C36.6269 20.346 36.2829 20.242 35.8509 20.242C35.5789 20.242 35.3709 20.298 35.2269 20.41C35.0829 20.506 35.0109 20.658 35.0109 20.866C35.0109 21.138 35.1789 21.346 35.5149 21.49C35.8509 21.618 36.3869 21.754 37.1229 21.898C38.0989 22.09 38.9229 22.306 39.5949 22.546C40.2669 22.786 40.8509 23.202 41.3469 23.794C41.8429 24.37 42.0909 25.17 42.0909 26.194C42.0909 26.994 41.8589 27.714 41.3949 28.354C40.9309 28.994 40.2589 29.498 39.3789 29.866C38.5149 30.234 37.4989 30.418 36.3309 30.418ZM52.6294 25.714V30.25H50.6134C46.9014 30.25 45.0454 28.402 45.0454 24.706V21.154H43.3654V16.714H45.0454V13.45H50.3734V16.714H52.5814V21.154H50.3734V24.802C50.3734 25.122 50.4454 25.354 50.5894 25.498C50.7494 25.642 51.0054 25.714 51.3574 25.714H52.6294ZM61.0905 30.418C59.7305 30.418 58.5065 30.138 57.4185 29.578C56.3305 29.018 55.4745 28.218 54.8505 27.178C54.2425 26.122 53.9385 24.89 53.9385 23.482C53.9385 22.074 54.2425 20.85 54.8505 19.81C55.4745 18.754 56.3305 17.946 57.4185 17.386C58.5065 16.826 59.7305 16.546 61.0905 16.546C62.4505 16.546 63.6745 16.826 64.7625 17.386C65.8505 17.946 66.6985 18.754 67.3065 19.81C67.9305 20.85 68.2425 22.074 68.2425 23.482C68.2425 24.89 67.9305 26.122 67.3065 27.178C66.6985 28.218 65.8505 29.018 64.7625 29.578C63.6745 30.138 62.4505 30.418 61.0905 30.418ZM61.0905 25.81C61.5865 25.81 62.0025 25.618 62.3385 25.234C62.6745 24.834 62.8425 24.25 62.8425 23.482C62.8425 22.714 62.6745 22.138 62.3385 21.754C62.0025 21.354 61.5865 21.154 61.0905 21.154C60.5945 21.154 60.1785 21.354 59.8425 21.754C59.5065 22.138 59.3385 22.714 59.3385 23.482C59.3385 24.25 59.4985 24.834 59.8185 25.234C60.1545 25.618 60.5785 25.81 61.0905 25.81ZM75.2443 19.21C75.7883 18.426 76.4523 17.802 77.2363 17.338C78.0203 16.858 78.8363 16.618 79.6843 16.618V22.306H78.1723C77.1643 22.306 76.4203 22.482 75.9403 22.834C75.4763 23.186 75.2443 23.81 75.2443 24.706V30.25H69.9163V16.714H75.2443V19.21ZM80.3994 23.482C80.3994 22.058 80.6394 20.826 81.1194 19.786C81.6154 18.73 82.2874 17.93 83.1354 17.386C83.9834 16.826 84.9354 16.546 85.9914 16.546C86.8714 16.546 87.6314 16.73 88.2714 17.098C88.9114 17.45 89.3994 17.938 89.7354 18.562V16.714H95.0394V30.25H89.7354V28.402C89.3994 29.026 88.9114 29.522 88.2714 29.89C87.6314 30.242 86.8714 30.418 85.9914 30.418C84.9354 30.418 83.9834 30.146 83.1354 29.602C82.2874 29.042 81.6154 28.242 81.1194 27.202C80.6394 26.146 80.3994 24.906 80.3994 23.482ZM89.7354 23.482C89.7354 22.762 89.5514 22.202 89.1834 21.802C88.8154 21.402 88.3434 21.202 87.7674 21.202C87.1914 21.202 86.7194 21.402 86.3514 21.802C85.9834 22.202 85.7994 22.762 85.7994 23.482C85.7994 24.202 85.9834 24.762 86.3514 25.162C86.7194 25.562 87.1914 25.762 87.7674 25.762C88.3434 25.762 88.8154 25.562 89.1834 25.162C89.5514 24.762 89.7354 24.202 89.7354 23.482ZM106.912 16.618C108.464 16.618 109.672 17.138 110.536 18.178C111.416 19.218 111.856 20.626 111.856 22.402V30.25H106.552V23.074C106.552 22.434 106.376 21.93 106.024 21.562C105.688 21.178 105.232 20.986 104.656 20.986C104.064 20.986 103.6 21.178 103.264 21.562C102.928 21.93 102.76 22.434 102.76 23.074V30.25H97.4319V16.714H102.76V18.778C103.176 18.138 103.728 17.618 104.416 17.218C105.12 16.818 105.952 16.618 106.912 16.618ZM122.59 25.714V30.25H120.574C116.862 30.25 115.006 28.402 115.006 24.706V21.154H113.326V16.714H115.006V13.45H120.334V16.714H122.542V21.154H120.334V24.802C120.334 25.122 120.406 25.354 120.55 25.498C120.71 25.642 120.966 25.714 121.318 25.714H122.59ZM137.723 23.362C137.723 23.73 137.699 24.082 137.651 24.418H129.083C129.163 25.586 129.651 26.17 130.547 26.17C131.123 26.17 131.539 25.906 131.795 25.378H137.435C137.243 26.338 136.835 27.202 136.211 27.97C135.603 28.722 134.827 29.322 133.883 29.77C132.955 30.202 131.931 30.418 130.811 30.418C129.467 30.418 128.267 30.138 127.211 29.578C126.171 29.018 125.355 28.218 124.763 27.178C124.187 26.122 123.899 24.89 123.899 23.482C123.899 22.074 124.187 20.85 124.763 19.81C125.355 18.754 126.171 17.946 127.211 17.386C128.267 16.826 129.467 16.546 130.811 16.546C132.155 16.546 133.347 16.826 134.387 17.386C135.443 17.93 136.259 18.714 136.835 19.738C137.427 20.762 137.723 21.97 137.723 23.362ZM132.323 22.09C132.323 21.642 132.179 21.306 131.891 21.082C131.603 20.842 131.243 20.722 130.811 20.722C129.867 20.722 129.315 21.178 129.155 22.09H132.323Z" fill="white"/>
<path d="M155 24H149V18H155V24ZM163 18H157V24H163V18ZM159 10H153V16H159V10ZM179 22C171.5 22 167.56 24.5 165 26H147C147 30.42 150.58 34 155 34H157C159 34 160.84 33.26 162.24 32C165.12 29.56 168.36 27.48 172.1 26.72C174.22 26.3 176.56 26 179 26H187V22H179Z" fill="#FF893B"/>
</svg>

<svg width="187" height="44" fill="none" xmlns="http://www.w3.org/2000/svg"><path d="M15.038 30.25l-3.192-6.096h-.024v6.096H6.494V13.258h7.92c1.376 0 2.552.248 3.528.744.976.48 1.704 1.144 2.184 1.992.496.832.744 1.776.744 2.832 0 1.136-.32 2.144-.96 3.024-.624.88-1.528 1.512-2.712 1.896l3.696 6.504h-5.856zm-3.216-9.648h2.112c.512 0 .896-.112 1.152-.336.256-.24.384-.608.384-1.104 0-.448-.136-.8-.408-1.056-.256-.256-.632-.384-1.128-.384h-2.112v2.88zm13.439-4.968c-.928 0-1.672-.248-2.232-.744a2.395 2.395 0 01-.84-1.872c0-.768.28-1.4.84-1.896.56-.512 1.304-.768 2.232-.768.912 0 1.648.256 2.208.768.56.496.84 1.128.84 1.896 0 .752-.28 1.376-.84 1.872-.56.496-1.296.744-2.208.744zm2.64 1.08V30.25h-5.328V16.714H27.9zm8.43 13.704c-1.28 0-2.416-.208-3.408-.624-.976-.416-1.752-.992-2.328-1.728a4.611 4.611 0 01-.984-2.496h5.112c.064.4.232.696.504.888.288.192.648.288 1.08.288.272 0 .488-.056.648-.168.16-.128.24-.28.24-.456 0-.304-.168-.52-.504-.648-.336-.128-.904-.272-1.704-.432-.976-.192-1.784-.4-2.424-.624-.624-.224-1.176-.608-1.656-1.152-.464-.544-.696-1.296-.696-2.256 0-.832.216-1.584.648-2.256.448-.688 1.104-1.224 1.968-1.608.864-.4 1.912-.6 3.144-.6 1.824 0 3.248.448 4.272 1.344 1.04.896 1.664 2.064 1.872 3.504h-4.728c-.08-.368-.248-.648-.504-.84-.256-.208-.6-.312-1.032-.312-.272 0-.48.056-.624.168-.144.096-.216.248-.216.456 0 .272.168.48.504.624.336.128.872.264 1.608.408.976.192 1.8.408 2.472.648.672.24 1.256.656 1.752 1.248.496.576.744 1.376.744 2.4 0 .8-.232 1.52-.696 2.16-.464.64-1.136 1.144-2.016 1.512-.864.368-1.88.552-3.048.552zm16.298-4.704v4.536h-2.016c-3.712 0-5.568-1.848-5.568-5.544v-3.552h-1.68v-4.44h1.68V13.45h5.328v3.264h2.208v4.44h-2.208v3.648c0 .32.072.552.216.696.16.144.416.216.768.216h1.272zm8.462 4.704c-1.36 0-2.584-.28-3.672-.84a6.295 6.295 0 01-2.569-2.4c-.608-1.056-.912-2.288-.912-3.696 0-1.408.304-2.632.912-3.672a6.248 6.248 0 012.569-2.424c1.088-.56 2.312-.84 3.672-.84 1.36 0 2.584.28 3.672.84a6.093 6.093 0 012.543 2.424c.624 1.04.937 2.264.937 3.672 0 1.408-.313 2.64-.936 3.696a6.136 6.136 0 01-2.544 2.4c-1.089.56-2.313.84-3.673.84zm0-4.608c.495 0 .911-.192 1.248-.576.336-.4.504-.984.504-1.752s-.169-1.344-.505-1.728c-.336-.4-.752-.6-1.248-.6s-.912.2-1.248.6c-.335.384-.503.96-.503 1.728s.16 1.352.48 1.752c.335.384.76.576 1.271.576zm14.153-6.6a6.34 6.34 0 011.992-1.872c.784-.48 1.6-.72 2.448-.72v5.688h-1.512c-1.008 0-1.752.176-2.232.528-.464.352-.696.976-.696 1.872v5.544h-5.328V16.714h5.328v2.496zm5.155 4.272c0-1.424.24-2.656.72-3.696.496-1.056 1.168-1.856 2.016-2.4.848-.56 1.8-.84 2.856-.84.88 0 1.64.184 2.28.552.64.352 1.128.84 1.464 1.464v-1.848h5.304V30.25h-5.304v-1.848a3.74 3.74 0 01-1.464 1.488c-.64.352-1.4.528-2.28.528-1.056 0-2.008-.272-2.856-.816-.848-.56-1.52-1.36-2.016-2.4-.48-1.056-.72-2.296-.72-3.72zm9.336 0c0-.72-.184-1.28-.552-1.68-.368-.4-.84-.6-1.416-.6s-1.048.2-1.416.6c-.368.4-.552.96-.552 1.68s.184 1.28.552 1.68c.368.4.84.6 1.416.6s1.048-.2 1.416-.6c.368-.4.552-.96.552-1.68zm17.177-6.864c1.552 0 2.76.52 3.624 1.56.88 1.04 1.32 2.448 1.32 4.224v7.848h-5.304v-7.176c0-.64-.176-1.144-.528-1.512-.336-.384-.792-.576-1.368-.576-.592 0-1.056.192-1.392.576-.336.368-.504.872-.504 1.512v7.176h-5.328V16.714h5.328v2.064c.416-.64.968-1.16 1.656-1.56.704-.4 1.536-.6 2.496-.6zm15.678 9.096v4.536h-2.016c-3.712 0-5.568-1.848-5.568-5.544v-3.552h-1.68v-4.44h1.68V13.45h5.328v3.264h2.208v4.44h-2.208v3.648c0 .32.072.552.216.696.16.144.416.216.768.216h1.272zm15.133-2.352c0 .368-.024.72-.072 1.056h-8.568c.08 1.168.568 1.752 1.464 1.752.576 0 .992-.264 1.248-.792h5.64c-.192.96-.6 1.824-1.224 2.592-.608.752-1.384 1.352-2.328 1.8-.928.432-1.952.648-3.072.648-1.344 0-2.544-.28-3.6-.84a6.091 6.091 0 01-2.448-2.4c-.576-1.056-.864-2.288-.864-3.696 0-1.408.288-2.632.864-3.672a6.05 6.05 0 012.448-2.424c1.056-.56 2.256-.84 3.6-.84 1.344 0 2.536.28 3.576.84a5.787 5.787 0 012.448 2.352c.592 1.024.888 2.232.888 3.624zm-5.4-1.272c0-.448-.144-.784-.432-1.008-.288-.24-.648-.36-1.08-.36-.944 0-1.496.456-1.656 1.368h3.168z" fill="#fff"/><path d="M155 24h-6v-6h6v6zm8-6h-6v6h6v-6zm-4-8h-6v6h6v-6zm20 12c-7.5 0-11.44 2.5-14 4h-18c0 4.42 3.58 8 8 8h2c2 0 3.84-.74 5.24-2 2.88-2.44 6.12-4.52 9.86-5.28 2.12-.42 4.46-.72 6.9-.72h8v-4h-8z" fill="#FF893B"/></svg>
